icon/pk/turkey.svg

<svg viewBox="0 0 48 48" fill="none" xmlns="http://www.w3.org/2000/svg" height="1em" width="1em">
  <path d="M4 36H44L39 44H9L4 36Z" stroke="black" stroke-width="4" stroke-linecap="round" stroke-linejoin="round"/>
  <path d="M11 30.0001V36.0001H37L37 31.0001C37 25.0001 34 23.0001 34 23.0001C36 20.5001 37 17.0001 34 15.0001C31 13.0001 28.5 15.0001 27 17.0001C27 17.0001 11 15.0001 11 30.0001Z" fill="#2F88FF" stroke="black" stroke-width="4" stroke-linecap="round" stroke-linejoin="round"/>
  <path d="M21 24C21 24 20 24.5 19 26C18 27.5 18 29 18 29" stroke="white" stroke-width="4" stroke-linecap="round"/>
  <path d="M39 9C38.4667 9.64 35.4444 13.2667 34 15" stroke="black" stroke-width="4"/>
  <circle cx="38.3557" cy="7.48259" r="2.5" transform="rotate(35.0717 38.3557 7.48259)" fill="black"/>
  <circle cx="40.8108" cy="9.20646" r="2.5" transform="rotate(35.0717 40.8108 9.20646)" fill="black"/>
</svg>

<svg width="48" height="48" fill="none" xmlns="http://www.w3.org/2000/svg"><path d="M4 36h40l-5 8H9l-5-8Z" stroke="#000" stroke-width="4" stroke-linecap="round" stroke-linejoin="round"/><path d="M11 30v6h26v-5c0-6-3-8-3-8 2-2.5 3-6 0-8s-5.5 0-7 2c0 0-16-2-16 13Z" fill="#2F88FF" stroke="#000" stroke-width="4" stroke-linecap="round" stroke-linejoin="round"/><path d="M21 24s-1 .5-2 2-1 3-1 3" stroke="#fff" stroke-width="4" stroke-linecap="round"/><path d="m39 9-5 6" stroke="#000" stroke-width="4"/><circle cx="38.356" cy="7.483" r="2.5" transform="rotate(35.072 38.356 7.483)" fill="#000"/><circle cx="40.811" cy="9.206" r="2.5" transform="rotate(35.072 40.81 9.206)" fill="#000"/></svg>
